!!!OTL: Das Lied vom Scheiden.
!!!ARE: Europa, Mitteleuropa, Deutschland
!!!SCT: A0262
!!!TXL: @@GMH
!!!YEM: Copyright 1995, estate of Helmut Schaffrath.
**kern	**text
!! Mixed meters:  4/2; 6/2; 4/1
*M6/2	*
*met(c)	*
*clefC4	*
*k[]	*
*C:ion	*
!LO:TX:a:t=jon.	!
{1C	Ach
=1	=1
*M4/2	*
2G	Gott,
2G	wie
2A	weh
2B	thut
=2	=2
*M6/2	*
1c	ſchei-
1c}	-den,
{1e	hat
=3	=3
*M4/1	*
!LO:TX:a:t=P:unclear meter 3+3?:problem	!
1d	mir
2B	mein
*lig	*
2.c	hertʒ
4B	.
4A	.
4G	.
2A/	.
*Xlig	*
2A/	ver-
=4	=4
*M4/2	*
1G	-wundt,
2r}	.
{2G	ſo
=5	=5
*M6/2	*
1c	drab
2c	ich
2B	v-
2B	-ver
4A/	die
4G	.
=6	=6
1A	hey-
1E}	-den,
{1c	vnd
=7	=7
*M6/2	*
*lig	*
2B	trawr
2.A	.
*Xlig	*
4E	ʒu
2G	al-
1F	-ler
=8	=8
1E	ſtund;
2r}	.
{2E	der
2E	ſtun-
2E	-den
=9	=9
*M4/1	*
1G	der
2F	ſeind
*lig	*
1E	al-
4D	.
4C	.
2D	.
*Xlig	*
2D	-ʒu-
=10	=10
*M4/2	*
1C	-vil,
2r}	.
{2C	mein
=11	=11
*M6/2	*
1G	hetrʒ
2A	tregt
*lig	*
2.B	heim-
4c	.
*Xlig	*
*lig	*
4d	-lich
4B	.
*Xlig	*
=12	=12
1c	lei-
1G}	-den,
{1c	wie
=13	=13
2B	wol
2.A	ich
4E	oft
2G	frö-
1F	-lich
=14	=14
0E/ll}	bin.
==	==
!!!GTL: Abschieds- und Wanderlieder
!!!AGN: Romanze, Ballade, Lied
!! Forster III 1549 No. 17
!!!ONB: ESAC (Essen Associative Code) Database: ALTDEU
!!!AMT: irregular
!!!AIN: vox
!!!EED: Helmut Schaffrath
!!!EEV: 1.0
!!!RDF**kern: l = terminal long
!!!AMD: Ionian
!!!URL-scan: https://rosdok.uni-rostock.de/mcrviewer/recordIdentifier/rosdok_ppn738218359/iview2/phys_0411.iview2?x=-495.6391625615763&y=2433.1349753825925&scale=0.4629418472063854&rotation=0&layout=singlePageLayout&logicalDiv=log_0010
!!!ENC: Anna Maria Matuszewska
!!!EEV: 2024/11/03
*-	*-
